Numix-GalliumOS/64/devices/multimedia-player.svg

<?xml version="1.0" encoding="UTF-8" standalone="yes"?>
<svg xmlns="http://www.w3.org/2000/svg" xmlns:xlink="http://www.w3.org/1999/xlink" width="64px" height="64px" viewBox="0 0 48 48" version="1.1">
  <g id="surface1">
    <path style=" stroke:none;fill-rule:nonzero;fill:rgb(57.647059%,63.137255%,63.137255%);fill-opacity:1;" d="M 18.75 6 L 29.25 6 C 31.320312 6 33 7.679688 33 9.75 L 33 38.25 C 33 40.320312 31.320312 42 29.25 42 L 18.75 42 C 16.679688 42 15 40.320312 15 38.25 L 15 9.75 C 15 7.679688 16.679688 6 18.75 6 Z M 18.75 6 "/>
    <path style=" stroke:none;fill-rule:nonzero;fill:rgb(47.058824%,72.54902%,90.588235%);fill-opacity:1;" d="M 19.5 8.25 L 28.5 8.25 C 29.742188 8.25 30.75 9.257812 30.75 10.5 L 30.75 22.5 C 30.75 23.742188 29.742188 24.75 28.5 24.75 L 19.5 24.75 C 18.257812 24.75 17.25 23.742188 17.25 22.5 L 17.25 10.5 C 17.25 9.257812 18.257812 8.25 19.5 8.25 Z M 19.5 8.25 "/>
    <path style=" stroke:none;fill-rule:nonzero;fill:rgb(39.607843%,48.235294%,51.372549%);fill-opacity:1;" d="M 30 33 C 30 36.3125 27.3125 39 24 39 C 20.6875 39 18 36.3125 18 33 C 18 29.6875 20.6875 27 24 27 C 27.3125 27 30 29.6875 30 33 Z M 30 33 "/>
    <path style=" stroke:none;fill-rule:nonzero;fill:rgb(2.745098%,21.176471%,25.882353%);fill-opacity:0.407843;" d="M 26.25 33 C 26.25 34.242188 25.242188 35.25 24 35.25 C 22.757812 35.25 21.75 34.242188 21.75 33 C 21.75 31.757812 22.757812 30.75 24 30.75 C 25.242188 30.75 26.25 31.757812 26.25 33 Z M 26.25 33 "/>
    <path style=" stroke:none;fill-rule:nonzero;fill:rgb(99.215686%,96.470588%,89.019608%);fill-opacity:0.254902;" d="M 25.003906 8.25 L 21.910156 24.75 L 28.5 24.75 C 29.746094 24.75 30.75 23.746094 30.75 22.5 L 30.75 10.5 C 30.75 9.253906 29.746094 8.25 28.5 8.25 Z M 25.003906 8.25 "/>
    <path style=" stroke:none;fill-rule:nonzero;fill:rgb(99.215686%,96.470588%,89.019608%);fill-opacity:0.235294;" d="M 28.5 6 L 28.5 42 L 29.25 42 C 29.785156 42 30.289062 41.886719 30.75 41.6875 L 30.75 6.3125 C 30.289062 6.113281 29.785156 6 29.25 6 Z M 28.5 6 "/>
  </g>
</svg>

<svg xmlns="http://www.w3.org/2000/svg" width="64" height="64" viewBox="0 0 48 48">
 <g>
  <path d="m 18.75 6 l 10.5 0 c 2.07 0 3.75 1.68 3.75 3.75 l 0 28.5 c 0 2.07 -1.68 3.75 -3.75 3.75 l -10.5 0 c -2.07 0 -3.75 -1.68 -3.75 -3.75 l 0 -28.5 c 0 -2.07 1.68 -3.75 3.75 -3.75 m 0 0" style="fill:#93a1a1;fill-opacity:1;stroke:none;fill-rule:nonzero"/>
  <path d="m 19.5 8.25 l 9 0 c 1.242 0 2.25 1.01 2.25 2.25 l 0 12 c 0 1.242 -1.01 2.25 -2.25 2.25 l -9 0 c -1.242 0 -2.25 -1.01 -2.25 -2.25 l 0 -12 c 0 -1.242 1.01 -2.25 2.25 -2.25 m 0 0" style="fill:#78b9e6;fill-opacity:1;stroke:none;fill-rule:nonzero"/>
  <path d="m 30 33 c 0 3.313 -2.688 6 -6 6 c -3.313 0 -6 -2.688 -6 -6 c 0 -3.313 2.688 -6 6 -6 c 3.313 0 6 2.688 6 6 m 0 0" style="fill:#647a82;fill-opacity:1;stroke:none;fill-rule:nonzero"/>
  <path d="m 26.25 33 c 0 1.242 -1.01 2.25 -2.25 2.25 c -1.242 0 -2.25 -1.01 -2.25 -2.25 c 0 -1.242 1.01 -2.25 2.25 -2.25 c 1.242 0 2.25 1.01 2.25 2.25 m 0 0" style="fill:#063642;fill-opacity:0.408;stroke:none;fill-rule:nonzero"/>
  <path d="m 25 8.25 l -3.094 16.5 l 6.59 0 c 1.246 0 2.25 -1 2.25 -2.25 l 0 -12 c 0 -1.246 -1 -2.25 -2.25 -2.25 m -3.496 0" style="fill:#fcf5e3;fill-opacity:0.255;stroke:none;fill-rule:nonzero"/>
  <path d="m 28.5 6 l 0 36 l 0.75 0 c 0.535 0 1.039 -0.113 1.5 -0.313 l 0 -35.37 c -0.461 -0.199 -0.965 -0.313 -1.5 -0.313 m -0.75 0" style="fill:#fcf5e3;fill-opacity:0.235;stroke:none;fill-rule:nonzero"/>
 </g>
</svg>
